dist/svgs/backward.svg

<!-- Generated by IcoMoon.io -->
<svg version="1.1" xmlns="http://www.w3.org/2000/svg" width="24" height="24" viewBox="0 0 24 24">
<title>backward</title>
<path d="M23.5 3.1c-0.4-0.2-0.8-0.1-1.1 0.1l-9.4 7.5v-6.7c0-0.4-0.2-0.7-0.5-0.9-0.4-0.2-0.8-0.1-1.1 0.1l-10 8c-0.3 0.2-0.4 0.5-0.4 0.8s0.1 0.6 0.4 0.8l10 8c0.2 0.1 0.4 0.2 0.6 0.2 0.1 0 0.3 0 0.4-0.1 0.4-0.2 0.6-0.5 0.6-0.9v-6.7l9.4 7.5c0.2 0.1 0.4 0.2 0.6 0.2 0.1 0 0.3 0 0.4-0.1 0.4-0.2 0.6-0.5 0.6-0.9v-16c0-0.4-0.2-0.7-0.5-0.9zM11 17.9l-7.4-5.9 7.4-5.9v11.8zM22 17.9l-7.4-5.9 7.4-5.9v11.8z"></path>
</svg>

<svg xmlns="http://www.w3.org/2000/svg" width="24" height="24"><path d="M23.5 3.1c-.4-.2-.8-.1-1.1.1L13 10.7V4c0-.4-.2-.7-.5-.9-.4-.2-.8-.1-1.1.1l-10 8c-.3.2-.4.5-.4.8s.1.6.4.8l10 8c.2.1.4.2.6.2.1 0 .3 0 .4-.1.4-.2.6-.5.6-.9v-6.7l9.4 7.5c.2.1.4.2.6.2.1 0 .3 0 .4-.1.4-.2.6-.5.6-.9V4c0-.4-.2-.7-.5-.9zM11 17.9L3.6 12 11 6.1v11.8zm11 0L14.6 12 22 6.1v11.8z"/></svg>
